logo/envoyer.svg

<?xml version="1.0" encoding="UTF-8" standalone="no"?>
<svg width="256px" height="304px" viewBox="0 0 256 304" version="1.1" xmlns="http://www.w3.org/2000/svg" xmlns:xlink="http://www.w3.org/1999/xlink" preserveAspectRatio="xMidYMid">
	<g>
		<path d="M164.881,184.797 C161.162,189.136 157.443,193.475 153.724,196.574 C151.245,198.434 148.765,199.673 146.286,201.533 L145.046,303.189 C155.584,301.949 166.741,299.47 177.279,296.371 L177.898,195.954 C177.279,195.334 176.659,194.714 176.659,194.095 C172.939,190.376 169.22,187.276 164.881,184.797 M92.358,183.557 C88.019,186.036 84.3,189.136 80.581,192.855 C79.961,193.475 79.341,194.095 78.722,194.714 L78.722,295.751 C89.259,299.47 99.797,301.329 110.334,302.569 L110.954,200.293 C108.475,199.053 105.995,197.194 103.516,195.334 C99.177,192.235 95.458,187.896 92.358,183.557" fill-opacity="0.5" fill="#F56857"></path>
		<path d="M128.93,0.7 C102.896,0.7 81.201,43.47 81.201,96.158 C81.201,101.117 81.201,106.075 81.821,111.034 C61.366,125.911 47.729,149.465 47.729,176.739 C47.729,188.516 50.208,199.053 54.547,208.971 C62.605,190.376 78.102,174.879 97.317,166.821 C105.375,182.317 116.533,191.615 128.93,191.615 C141.327,191.615 152.484,182.317 161.162,166.821 C179.758,174.879 195.254,190.376 203.312,208.971 C207.651,199.053 210.131,187.896 210.131,176.739 C210.131,149.465 197.114,125.291 176.659,111.034 C177.278,106.075 177.278,101.116 177.278,96.158 C176.039,44.09 154.964,0.7 128.93,0.7 L128.93,0.7 Z M128.31,62.685 C140.087,62.685 149.385,71.983 149.385,83.76 C149.385,95.538 140.087,104.836 128.31,104.836 C116.533,104.836 107.235,95.538 107.235,83.76 C107.855,71.983 117.152,62.685 128.31,62.685 L128.31,62.685 Z" fill="#F96853"></path>
		<path d="M63.225,252.361 C47.109,238.104 35.952,218.889 31.613,196.574 C19.835,195.334 9.298,194.095 0,192.855 C4.339,234.385 28.513,269.717 63.225,290.172 L63.225,252.361 L63.225,252.361 Z M32.232,156.903 C34.092,148.225 37.811,139.548 41.53,131.489 C42.77,129.01 43.39,126.531 44.629,124.671 C50.208,113.514 58.266,103.596 68.184,95.538 L68.184,94.298 L68.184,86.24 C68.184,78.182 68.804,70.744 69.424,63.305 C32.852,82.521 6.199,118.472 0.62,160.622 C9.918,159.383 20.455,158.143 32.232,156.903 L32.232,156.903 Z M192.775,289.552 C226.867,269.717 251.041,233.765 256,192.235 C246.702,193.475 236.165,195.334 224.387,195.954 C220.048,218.269 208.891,237.485 192.775,251.741 L192.775,289.552 L192.775,289.552 Z M255.38,160.622 C249.801,118.472 223.768,83.141 187.196,63.925 C187.816,71.363 188.436,78.802 188.436,86.86 L188.436,94.918 L188.436,96.158 C197.734,104.216 205.792,114.133 211.37,125.291 C212.61,127.77 213.85,129.63 214.47,132.109 C218.809,139.548 221.908,148.225 223.768,156.903 C235.545,158.143 246.082,159.383 255.38,160.622 L255.38,160.622 Z" fill-opacity="0.8" fill="#F56857"></path>
	</g>
</svg>

<svg viewBox="0 0 256 304" xmlns="http://www.w3.org/2000/svg"><path fill="#F56857" fill-opacity=".5" d="M164.88 184.797c-3.72 4.33-7.44 8.67-11.16 11.77 -2.48 1.86-4.96 3.09-7.44 4.95l-1.24 101.65c10.53-1.24 21.69-3.72 32.23-6.82l.61-100.42c-.62-.62-1.24-1.24-1.24-1.86 -3.72-3.72-7.44-6.82-11.78-9.3m-72.53-1.24c-4.34 2.47-8.06 5.57-11.78 9.29 -.62.62-1.24 1.24-1.86 1.85V295.7c10.53 3.71 21.07 5.57 31.61 6.81l.62-102.28c-2.48-1.24-4.96-3.1-7.44-4.96 -4.34-3.1-8.06-7.44-11.16-11.78"/><path fill="#F96853" d="M128.93.7C102.89.7 81.2 43.47 81.2 96.15c0 4.95 0 9.91.62 14.87 -20.46 14.87-34.1 38.43-34.1 65.7 0 11.77 2.47 22.31 6.81 32.23 8.05-18.6 23.555-34.1 42.77-42.15 8.05 15.49 19.21 24.79 31.613 24.79 12.39 0 23.55-9.3 32.232-24.8 18.59 8.05 34.09 23.55 42.15 42.15 4.33-9.92 6.81-21.08 6.81-32.24 0-27.28-13.02-51.45-33.48-65.71 .61-4.96.61-9.92.61-14.88C175.99 44.04 154.91.65 128.88.65v0Zm-.62 61.985c11.77 0 21.07 9.29 21.07 21.07 0 11.77-9.3 21.07-21.08 21.07 -11.78 0-21.08-9.3-21.08-21.08 .62-11.78 9.91-21.08 21.07-21.08v0Z"/><path fill="#F56857" fill-opacity=".8" d="M63.22 252.36C47.1 238.1 35.94 218.88 31.6 196.57c-11.78-1.24-22.32-2.48-31.62-3.72 4.339 41.53 28.513 76.86 63.22 97.31v-37.82 0Zm-31-95.46c1.86-8.68 5.57-17.36 9.29-25.42 1.24-2.48 1.86-4.96 3.09-6.82 5.57-11.16 13.637-21.08 23.55-29.14v-1.24 -8.06c0-8.06.62-15.5 1.24-22.94C32.81 82.49 6.16 118.44.58 160.59c9.29-1.24 19.83-2.48 31.61-3.72v0Zm160.54 132.64c34.09-19.84 58.26-55.79 63.22-97.32 -9.3 1.24-19.84 3.09-31.62 3.71 -4.34 22.31-15.5 41.53-31.62 55.78v37.81 0Zm62.6-128.93c-5.58-42.15-31.62-77.481-68.19-96.697 .62 7.43 1.24 14.87 1.24 22.93v8.05 1.24c9.29 8.05 17.35 17.97 22.93 29.13 1.24 2.47 2.48 4.33 3.1 6.81 4.33 7.43 7.43 16.11 9.29 24.79 11.77 1.24 22.31 2.48 31.61 3.71v0Z"/></svg>
